careers/base/static/css/protocol/img/icons/social/twitter/black.svg

<svg width="16px" height="16px" viewBox="0 0 16 16" xmlns="http://www.w3.org/2000/svg"><title>icon/social/twitter/black</title><g id="icon/social/twitter/black" stroke="none" stroke-width="1" fill="none" fill-rule="evenodd"><path d="M5.03168,14.5 C11.06944,14.5 14.37184,9.49812174 14.37184,5.16051545 C14.37184,5.01844572 14.37184,4.87701595 14.36224,4.73622613 C15.0046921,4.27156268 15.5592675,3.69622416 16,3.03714901 C15.4008826,3.30260295 14.7653307,3.47668756 14.11456,3.55359166 C14.7998362,3.14336985 15.312719,2.49816206 15.55776,1.73804296 C14.9133808,2.12038671 14.2084135,2.38984352 13.47328,2.53478534 C12.455733,1.45287593 10.8388604,1.18807479 9.52931154,1.88886721 C8.21976268,2.58965963 7.54321599,4.08176193 7.87904,5.52848883 C5.23961327,5.39617811 2.7804645,4.14959545 1.1136,2.09897686 C0.242318564,3.59880102 0.687352246,5.51751969 2.12992,6.48073997 C1.60751437,6.46525792 1.0964988,6.32434371 0.64,6.06988968 C0.64,6.08332871 0.64,6.09740769 0.64,6.11148667 C0.640427605,7.67399317 1.74192095,9.01977884 3.2736,9.32917396 C2.79031654,9.46096606 2.28325158,9.48023139 1.79136,9.38548989 C2.22140667,10.7226238 3.45380772,11.6386286 4.85824,11.665005 C3.69583042,12.5784954 2.25987809,13.0743928 0.78144,13.0729032 C0.520258284,13.0724018 0.259330602,13.0565892 0,13.0255466 C1.50120701,13.988854 3.24794458,14.4998188 5.03168,14.4974402" id="icon" fill="#000000" fill-rule="nonzero"></path></g></svg>

<svg width="16" height="16" viewBox="0 0 16 16" xmlns="http://www.w3.org/2000/svg"><path d="M5.032 14.5c6.037 0 9.34-5.002 9.34-9.34 0-.142 0-.283-.01-.424A6.679 6.679 0 0 0 16 3.037c-.6.266-1.235.44-1.885.517a3.294 3.294 0 0 0 1.443-1.816 6.579 6.579 0 0 1-2.085.797A3.286 3.286 0 0 0 7.88 5.528 9.32 9.32 0 0 1 1.114 2.1 3.285 3.285 0 0 0 2.13 6.481 3.258 3.258 0 0 1 .64 6.07v.041A3.284 3.284 0 0 0 3.274 9.33c-.484.132-.99.151-1.483.056a3.286 3.286 0 0 0 3.067 2.28A6.587 6.587 0 0 1 0 13.025a9.294 9.294 0 0 0 5.032 1.472" fill="#000" fill-rule="nonzero"/></svg>
